X:7048
T:The Maid Behind the Bar
O:england
M:4/4
L:1/8
Q:1/4=200
C:Trad
K:D
DE|FAAB AFED|FAAB ABde|fBBA Bcde|f2 af efdB|
A3 B AFED|FAAB ABde|fBBA BcdB|[1AFEF D2:|[2AFEF D3 z||
a2 ag fd de|fdag fd d2|g2 ga beef|gebe gebe|
fgaf bfaf|defd e2 de|fBBA BcdB|AFEF D3 z:|


